X: 1
T: Woods Of Fanaid, The
M: 9/8
L: 1/8
R: slip jig
K: D Mixolydian
|: E |
F2 D DED AFD | F/G/AF dAF AB/A/G |
F2 D DED AFD |[1 E/F/GE cGE cG :|[2 E/F/GE cGE G2 ||
|: A |
F2 A dAF dAF | F2 A dAF ABc |
F2 A dAF d2 G |[1 E/F/GE cGE G2 :|[2 E/F/GE cGE cG |]
